assets/images/approved-transaction-hand.svg

<svg width="119" height="192" viewBox="0 0 119 192" fill="none" xmlns="http://www.w3.org/2000/svg">
<g clip-path="url(#clip0_257_9254)">
<path d="M1.84016 171.363C1.84016 171.363 2.21683 155.586 4.57683 152.786C4.57683 152.786 -2.64984 140.4 6.20016 125.21C6.20016 125.21 11.2135 119.46 13.5735 117.69C15.9335 115.92 23.3068 110.023 26.6968 105.303C30.0902 100.583 37.0202 94.3897 45.1302 99.2564C53.2402 104.123 48.3735 116.363 46.4568 118.426C44.5402 120.49 41.0002 124.03 39.2302 124.916C37.4602 125.8 29.3502 129.783 30.8235 136.27C30.8235 136.27 35.6902 143.79 36.1335 148.656H81.1102C81.1102 148.656 75.9502 158.536 66.5102 160.896C57.0735 163.256 49.4035 163.55 49.4035 163.55L48.3702 170.186C48.3702 170.186 33.0335 175.936 18.7302 174.316C4.42683 172.693 1.83683 171.363 1.83683 171.363H1.84016Z" fill="#50EEF6"/>
<path d="M96.5938 85.6865V101.613C96.5938 101.613 104.41 104.416 108.244 104.12C112.077 103.826 118.714 100.14 118.124 92.4698C117.534 84.8031 109.424 84.2131 106.62 84.5065C103.817 84.7998 98.8038 86.7198 96.5938 85.6865Z" fill="#50EEF6"/>
<path d="M96.5938 101.613V104.417C96.5938 104.417 93.4971 104.563 91.1371 104.27C88.7771 103.977 83.7638 101.617 79.6338 101.91C75.5038 102.203 72.2605 106.04 71.6705 109.137C71.0805 112.233 72.5538 116.363 73.2938 117.393C73.2938 117.393 69.6071 124.47 73.5871 130.077C73.5871 130.077 71.4038 133.277 71.5238 135.68C71.6438 138.083 72.8505 146.003 86.5638 146.003C100.277 146.003 103.524 135.827 103.374 128.897C103.374 128.897 108.24 122.407 103.374 115.773C103.374 115.773 105.734 107.22 102.194 103.83L96.5905 101.617L96.5938 101.613Z" fill="#50EEF6"/>
<path d="M92.4668 116.95C92.4668 116.95 94.2368 126.387 92.0234 130.517C92.0234 130.517 101.167 130.073 103.377 128.893C103.377 128.893 107.947 121.817 103.377 115.77C103.377 115.77 95.7101 117.393 92.4634 116.95H92.4668Z" fill="#FED607"/>
<path d="M36.1337 148.653H90.6971C90.6971 148.653 95.8571 147.62 95.7104 144.083C95.7104 144.083 91.1404 145.707 85.2404 145.707C79.3404 145.707 70.7904 142.463 71.3771 136.563C71.9637 130.663 73.5904 130.073 73.5904 130.073C73.5904 130.073 69.4604 126.24 73.2971 117.39C73.2971 117.39 69.3171 112.82 72.2637 107.067C75.2137 101.317 81.7004 101.61 83.4704 101.907C85.2404 102.2 90.6971 104.56 92.9071 104.56C95.1171 104.56 96.5937 104.413 96.5937 104.413V8.50666C96.5937 8.50666 95.7104 1.57666 90.1037 1.57666H24.9271C24.9271 1.57666 17.9971 2.01999 17.9971 8.80333V114.297C17.9971 114.297 24.3371 108.25 26.6971 105.3C29.0571 102.35 34.9537 95.7133 42.1804 97.78C49.4071 99.8467 51.0271 107.367 49.4071 111.053C47.7871 114.74 47.6371 118.573 41.2971 122.997C34.9571 127.42 29.6471 130.073 30.8271 136.27C30.8271 136.27 35.5471 142.76 36.1371 148.657L36.1337 148.653Z" fill="#00B268"/>
<path d="M23.5033 109.417V11.5H91.19V104.697L85.88 103.073C85.88 103.073 82 101 77.5 102.5C74.2567 104.42 72.89 105.163 72.3133 108.383C71.74 111.603 71.5 114 71.5 114L73.5 117.5C73.5 117.5 71.5 120.5 71.5 123.5C71.5 126.5 73.5 130.5 73.5 130.5L71.5 134.5L71.9821 139H33C33 139 30 137.5 31 132.5C32 127.5 43 123.5 47 117.5C48 115.313 53.88 104.843 45.3267 99.6833C36.7733 94.5233 32.5133 99.9267 27.5 104.5L23.5 109.417H23.5033Z" fill="#E5FAFE"/>
<path d="M33 139H71.5" stroke="#002140" stroke-linecap="round" stroke-linejoin="round"/>
<path d="M1.80704 171.524C0.740374 172.694 2.65704 187.734 4.42704 188.914C15.6337 191.717 34.067 190.977 50.5837 186.85C50.5837 186.85 48.667 173.137 48.3704 170.187C48.3704 170.187 39.0804 173.43 31.117 173.874C23.1537 174.317 7.81704 173.284 1.80371 171.524H1.80704Z" fill="#FED607"/>
<path d="M101.46 122.7L99.1003 119.603L96.7437 122.85L98.807 126.24L101.46 122.7Z" fill="#FFF2B2"/>
<path d="M104.707 117.54C104.707 117.54 106.18 122.11 105.15 125.06L110.31 128.453H115.47L117.24 125.8V117.69L115.47 114.447H110.014L104.704 117.543L104.707 117.54Z" fill="#FFFAF0"/>
<path d="M101.387 102.94C101.387 102.94 99.9134 94.9036 101.24 85.8269C100.46 85.8169 96.8168 85.7603 96.8168 85.7603L96.5234 101.097L101.39 102.94H101.387Z" fill="#002140"/>
<path d="M18.1006 114.147V8.29667C18.1006 4.54333 21.1439 1.5 24.8973 1.5H89.6106C93.3639 1.5 96.4072 4.54333 96.4072 8.29667V104.53" stroke="#002140" stroke-linecap="round" stroke-linejoin="round"/>
<path d="M96.027 144.103C95.1036 146.76 92.577 148.67 89.607 148.67H36.0703" stroke="#002140" stroke-linecap="round" stroke-linejoin="round"/>
<path d="M90.8509 104.163V11.4565H23.3809V108.88" stroke="#002140" stroke-linecap="round" stroke-linejoin="round"/>
<path d="M103.314 115.81C90.4836 119.387 86.7469 114.327 81.8703 114.173C76.9936 114.023 71.9169 116.487 71.5436 123.667C71.4036 126.36 72.2036 128.5 73.6269 130.12" stroke="#002140" stroke-linecap="round" stroke-linejoin="round"/>
<path d="M103.314 128.973C90.484 132.55 86.9474 127.66 80.8074 127.78C74.6674 127.903 70.3274 131.827 71.644 138.08C72.524 142.257 76.9374 144.42 80.7507 145.267C85.7274 146.373 103.754 148.253 103.314 128.973Z" stroke="#002140" stroke-linecap="round" stroke-linejoin="round"/>
<path d="M98.7507 104.3C89.494 105.656 86.1107 101.81 81.8673 101.68C76.9907 101.53 71.914 103.993 71.5407 111.173C71.4007 113.866 72.2007 116.006 73.624 117.626" stroke="#002140" stroke-linecap="round" stroke-linejoin="round"/>
<path d="M103.167 128.79C103.167 128.79 108.327 123.113 103.313 115.643C103.313 115.643 106.46 106.437 102.16 103.61" stroke="#002140" stroke-linecap="round" stroke-linejoin="round"/>
<path d="M103.167 128.79C102.967 128.89 102.77 128.987 102.577 129.08" stroke="#002140" stroke-linecap="round" stroke-linejoin="round"/>
<path d="M81.084 149.14C81.084 149.14 72.9007 164.18 49.894 163.74" stroke="#002140" stroke-linecap="round" stroke-linejoin="round"/>
<path d="M4.21677 153.12C4.21677 153.12 -1.76323 170.627 4.4301 188.913" stroke="#002140" stroke-linecap="round" stroke-linejoin="round"/>
<path d="M4.31338 152.947C4.31338 152.947 0.736716 144.467 3.51005 132.35C6.28338 120.237 15.95 117.68 21.7667 111.093C27.5834 104.507 34.5967 93.2499 44.41 98.7265C51.5934 102.737 50.7634 111.067 46.89 117.187C44.9534 120.247 42.3967 122.723 39.3334 124.637C36.1734 126.61 32.24 128.307 31.0534 132.167C30.77 133.087 30.6667 134.057 30.6667 135.013C30.32 137.49 39.02 142.947 35.04 157.547" stroke="#002140" stroke-linecap="round" stroke-linejoin="round"/>
<path d="M96.4038 85.7301C100.954 86.4668 103.24 84.5134 109.25 84.6068C115.26 84.6968 118.504 89.8601 117.914 95.6101C117.324 101.36 109.36 107.997 96.6805 101.36" stroke="#002140" stroke-linecap="round" stroke-linejoin="round"/>
<path d="M49.5271 163.737C49.5271 163.737 46.4671 167.94 50.8904 186.74" stroke="#002140" stroke-linecap="round" stroke-linejoin="round"/>
<path d="M1.84082 171.364C19.6875 175.424 36.9941 173.834 48.2341 170.374" stroke="#002140" stroke-linecap="round" stroke-linejoin="round"/>
<path d="M4.43066 188.914C18.294 191.677 37.5373 190.737 50.8907 186.744" stroke="#002140" stroke-linecap="round" stroke-linejoin="round"/>
<path d="M24.7871 174.023C24.7871 174.023 31.3138 182.65 24.7871 190.28" stroke="#002140" stroke-linecap="round" stroke-linejoin="round"/>
<path d="M11.6836 173.303C11.6836 173.303 18.2103 181.93 11.6836 189.56" stroke="#002140" stroke-linecap="round" stroke-linejoin="round"/>
<path d="M37.397 173.25C37.397 173.25 43.9236 181.877 37.397 189.507" stroke="#002140" stroke-linecap="round" stroke-linejoin="round"/>
<path d="M20.7801 183.993C21.9104 183.993 22.8267 183.077 22.8267 181.947C22.8267 180.816 21.9104 179.9 20.7801 179.9C19.6497 179.9 18.7334 180.816 18.7334 181.947C18.7334 183.077 19.6497 183.993 20.7801 183.993Z" fill="#002140"/>
<path d="M7.84061 183.107C8.97095 183.107 9.88728 182.19 9.88728 181.06C9.88728 179.93 8.97095 179.013 7.84061 179.013C6.71027 179.013 5.79395 179.93 5.79395 181.06C5.79395 182.19 6.71027 183.107 7.84061 183.107Z" fill="#002140"/>
<path d="M33.4139 183.48C34.5442 183.48 35.4605 182.564 35.4605 181.433C35.4605 180.303 34.5442 179.387 33.4139 179.387C32.2835 179.387 31.3672 180.303 31.3672 181.433C31.3672 182.564 32.2835 183.48 33.4139 183.48Z" fill="#002140"/>
<path d="M44.9803 181.977C46.1106 181.977 47.0269 181.06 47.0269 179.93C47.0269 178.8 46.1106 177.883 44.9803 177.883C43.8499 177.883 42.9336 178.8 42.9336 179.93C42.9336 181.06 43.8499 181.977 44.9803 181.977Z" fill="#002140"/>
<path d="M92.2539 117.14C92.2539 117.14 94.4672 121.86 92.2539 130.117" stroke="#002140" stroke-linecap="round" stroke-linejoin="round"/>
<path d="M99.0374 119.35L96.5308 122.743L99.1841 126.133L101.691 122.743L99.0374 119.35Z" stroke="#002140" stroke-linecap="round" stroke-linejoin="round"/>
<path d="M104.641 118.023L110.244 114.336H115.407L117.324 117.433V126.133L115.407 128.2H110.687L105.231 124.806" stroke="#002140" stroke-linecap="round" stroke-linejoin="round"/>
<path d="M110.833 114.336V128.2" stroke="#002140" stroke-linecap="round" stroke-linejoin="round"/>
<path d="M110.76 118.17L105.6 121.12L110.54 124.66" stroke="#002140" stroke-linecap="round" stroke-linejoin="round"/>
<path d="M115.184 114.707L111.204 118.32L117.027 120.827L111.13 124.143L115.33 127.683" stroke="#002140" stroke-linecap="round" stroke-linejoin="round"/>
<path d="M49.0549 66.5089L47.2134 69.2696C47.2134 69.2696 50.4824 69.2226 56.556 75.2994C56.556 75.2994 58.7207 63.883 65.1175 56.9811L64.8414 56.6141L62.3568 55.5098C62.3568 55.5098 57.4784 60.7113 55.0847 69.8249C55.0847 69.8249 52.0008 66.97 49.0549 66.512V66.5089Z" fill="#03D47C"/>
<path d="M62.4069 55.4663C60.2234 57.3957 55.8062 65.3266 55.0376 69.8379C54.727 69.5368 53.1646 67.783 48.9325 66.3556C48.7725 66.6191 47.3984 68.9187 47.229 69.1634C51.1097 69.6528 56.4493 75.0551 56.6187 75.3312C57.8297 68.3195 61.9896 59.6514 65.1708 56.8781C64.8069 56.6898 62.7206 55.6702 62.41 55.4663H62.4069Z" stroke="#002140" stroke-width="0.99999" stroke-linecap="round" stroke-linejoin="round"/>
<path d="M57.168 47.1084C67.4701 47.1085 75.8213 55.4605 75.8213 65.7627C75.8211 76.0647 67.47 84.4159 57.168 84.416C46.8658 84.416 38.5138 76.0648 38.5137 65.7627C38.5137 55.4604 46.8657 47.1084 57.168 47.1084ZM57.168 50.7383C48.8704 50.7383 42.1436 57.4651 42.1436 65.7627C42.1437 74.0602 48.8704 80.7861 57.168 80.7861C65.4654 80.7861 72.1922 74.0601 72.1924 65.7627C72.1924 57.4651 65.4655 50.7384 57.168 50.7383Z" fill="#03D47C"/>
<path d="M57.1676 84.4163C67.4699 84.4163 75.8215 76.0646 75.8215 65.7623C75.8215 55.46 67.4699 47.1084 57.1676 47.1084C46.8653 47.1084 38.5137 55.46 38.5137 65.7623C38.5137 76.0646 46.8653 84.4163 57.1676 84.4163Z" stroke="#002140" stroke-width="0.99999" stroke-linecap="round" stroke-linejoin="round"/>
<path d="M57.1677 80.7866C65.4653 80.7866 72.1919 74.0601 72.1919 65.7624C72.1919 57.4648 65.4653 50.7383 57.1677 50.7383C48.8701 50.7383 42.1436 57.4648 42.1436 65.7624C42.1436 74.0601 48.8701 80.7866 57.1677 80.7866Z" stroke="#002140" stroke-width="0.99999" stroke-linecap="round" stroke-linejoin="round"/>
</g>
<defs>
<clipPath id="clip0_257_9254">
<rect width="118" height="191" fill="white" transform="translate(0.5 0.5)"/>
</clipPath>
</defs>
</svg>

<svg xmlns="http://www.w3.org/2000/svg" width="119" height="192" fill="none" viewBox="0 0 119 192"><g clip-path="url(#a)"><path fill="#50eef6" d="M1.84 171.363s.377-15.777 2.737-18.577c0 0-7.227-12.386 1.623-27.576 0 0 5.014-5.75 7.373-7.52s9.734-7.667 13.124-12.387c3.393-4.72 10.323-10.913 18.433-6.047s3.243 17.107 1.327 19.17c-1.917 2.064-5.457 5.604-7.227 6.49-1.77.884-9.88 4.867-8.406 11.354 0 0 4.866 7.52 5.31 12.386H81.11s-5.16 9.88-14.6 12.24c-9.437 2.36-17.107 2.654-17.107 2.654l-1.033 6.636s-15.336 5.75-29.64 4.13c-14.303-1.623-16.893-2.953-16.893-2.953zm94.754-85.676v15.926s7.816 2.803 11.65 2.507c3.833-.294 10.47-3.98 9.88-11.65-.59-7.667-8.7-8.257-11.504-7.963-2.803.293-7.816 2.213-10.026 1.18"/><path fill="#50eef6" d="M96.594 101.613v2.804s-3.097.146-5.457-.147-7.373-2.653-11.503-2.36-7.374 4.13-7.963 7.227c-.59 3.096.883 7.226 1.623 8.256 0 0-3.687 7.077.293 12.684 0 0-2.183 3.2-2.063 5.603s1.326 10.323 15.04 10.323 16.96-10.176 16.81-17.106c0 0 4.866-6.49 0-13.124 0 0 2.36-8.553-1.18-11.943l-5.603-2.213z"/><path fill="#fed607" d="M92.467 116.95s1.77 9.437-.444 13.567c0 0 9.144-.444 11.354-1.624 0 0 4.57-7.076 0-13.123 0 0-7.667 1.623-10.914 1.18z"/><path fill="#00b268" d="M36.134 148.653h54.563s5.16-1.033 5.013-4.57c0 0-4.57 1.624-10.47 1.624s-14.45-3.244-13.863-9.144 2.213-6.49 2.213-6.49-4.13-3.833-.293-12.683c0 0-3.98-4.57-1.033-10.323 2.95-5.75 9.436-5.457 11.206-5.16 1.77.293 7.227 2.653 9.437 2.653s3.687-.147 3.687-.147V8.507s-.884-6.93-6.49-6.93H24.927s-6.93.443-6.93 7.226v105.494s6.34-6.047 8.7-8.997 8.257-9.587 15.483-7.52 8.847 9.587 7.227 13.273-1.77 7.52-8.11 11.944c-6.34 4.423-11.65 7.076-10.47 13.273 0 0 4.72 6.49 5.31 12.387z"/><path fill="#e5fafe" d="M23.503 109.417V11.5H91.19v93.197l-5.31-1.624S82 101 77.5 102.5c-3.243 1.92-4.61 2.663-5.187 5.883-.573 3.22-.813 5.617-.813 5.617l2 3.5s-2 3-2 6 2 7 2 7l-2 4 .482 4.5H33s-3-1.5-2-6.5 12-9 16-15c1-2.187 6.88-12.657-1.673-17.817s-12.814.244-17.827 4.817l-4 4.917z"/><path stroke="#002140" stroke-linecap="round" stroke-linejoin="round" d="M33 139h38.5"/><path fill="#fed607" d="M1.807 171.524c-1.067 1.17.85 16.21 2.62 17.39 11.207 2.803 29.64 2.063 46.157-2.064 0 0-1.917-13.713-2.214-16.663 0 0-9.29 3.243-17.253 3.687s-23.3-.59-29.313-2.35z"/><path fill="#fff2b2" d="m101.46 122.7-2.36-3.097-2.356 3.247 2.063 3.39z"/><path fill="#fffaf0" d="M104.707 117.54s1.473 4.57.443 7.52l5.16 3.393h5.16l1.77-2.653v-8.11l-1.77-3.243h-5.456l-5.31 3.096z"/><path fill="#002140" d="M101.387 102.94s-1.474-8.036-.147-17.113c-.78-.01-4.423-.067-4.423-.067l-.294 15.337 4.867 1.843z"/><path stroke="#002140" stroke-linecap="round" stroke-linejoin="round" d="M18.1 114.147V8.297A6.797 6.797 0 0 1 24.898 1.5h64.714a6.797 6.797 0 0 1 6.796 6.797v96.233m-.381 39.573a6.8 6.8 0 0 1-6.42 4.567H36.07"/><path stroke="#002140" stroke-linecap="round" stroke-linejoin="round" d="M90.85 104.163V11.457H23.38v97.423m79.934 6.93c-12.83 3.577-16.567-1.483-21.444-1.637-4.876-.15-9.953 2.314-10.326 9.494-.14 2.693.66 4.833 2.083 6.453"/><path stroke="#002140" stroke-linecap="round" stroke-linejoin="round" d="M103.314 128.973c-12.83 3.577-16.367-1.313-22.507-1.193-6.14.123-10.48 4.047-9.163 10.3.88 4.177 5.293 6.34 9.107 7.187 4.976 1.106 23.003 2.986 22.563-16.294M98.75 104.3c-9.256 1.356-12.64-2.49-16.883-2.62-4.876-.15-9.953 2.313-10.326 9.493-.14 2.693.66 4.833 2.083 6.453m29.543 11.164s5.16-5.677.146-13.147c0 0 3.147-9.206-1.153-12.033"/><path stroke="#002140" stroke-linecap="round" stroke-linejoin="round" d="M103.167 128.79q-.3.15-.59.29m-21.493 20.06s-8.183 15.04-31.19 14.6M4.217 153.12s-5.98 17.507.213 35.793m-.117-35.966s-3.576-8.48-.803-20.597c2.773-12.113 12.44-14.67 18.257-21.257 5.816-6.586 12.83-17.843 22.643-12.367 7.183 4.011 6.353 12.341 2.48 18.461-1.937 3.06-4.493 5.536-7.557 7.45-3.16 1.973-7.093 3.67-8.28 7.53-.283.92-.386 1.89-.386 2.846-.347 2.477 8.353 7.934 4.373 22.534M96.404 85.73c4.55.737 6.836-1.217 12.846-1.123 6.01.09 9.254 5.253 8.664 11.003s-8.554 12.387-21.234 5.75m-47.153 62.377s-3.06 4.203 1.363 23.003"/><path stroke="#002140" stroke-linecap="round" stroke-linejoin="round" d="M1.84 171.364c17.848 4.06 35.154 2.47 46.394-.99M4.43 188.914c13.864 2.763 33.107 1.823 46.46-2.17"/><path stroke="#002140" stroke-linecap="round" stroke-linejoin="round" d="M24.787 174.023s6.527 8.627 0 16.257m-13.103-16.977s6.526 8.627 0 16.257m25.713-16.31s6.527 8.627 0 16.257"/><path fill="#002140" d="M20.78 183.993a2.046 2.046 0 1 0 0-4.093 2.046 2.046 0 0 0 0 4.093m-12.94-.886a2.047 2.047 0 1 0 0-4.094 2.047 2.047 0 0 0 0 4.094m25.574.373a2.047 2.047 0 1 0 0-4.093 2.047 2.047 0 0 0 0 4.093m11.566-1.503a2.047 2.047 0 1 0 0-4.094 2.047 2.047 0 0 0 0 4.094"/><path stroke="#002140" stroke-linecap="round" stroke-linejoin="round" d="M92.254 117.14s2.213 4.72 0 12.977m6.783-10.767-2.506 3.393 2.653 3.39 2.507-3.39zm5.604-1.327 5.603-3.687h5.163l1.917 3.097v8.7l-1.917 2.067h-4.72l-5.456-3.394m5.602-10.47V128.2"/><path stroke="#002140" stroke-linecap="round" stroke-linejoin="round" d="m110.76 118.17-5.16 2.95 4.94 3.54m4.644-9.953-3.98 3.613 5.823 2.507-5.897 3.316 4.2 3.54"/><path fill="#03d47c" d="m49.055 66.509-1.842 2.76s3.27-.046 9.343 6.03c0 0 2.165-11.416 8.562-18.318l-.277-.367-2.484-1.104s-4.879 5.201-7.272 14.315c0 0-3.084-2.855-6.03-3.313z"/><path stroke="#002140" stroke-linecap="round" stroke-linejoin="round" d="M62.407 55.466c-2.184 1.93-6.6 9.86-7.37 14.372-.31-.301-1.872-2.055-6.105-3.482-.16.263-1.534 2.563-1.703 2.807 3.88.49 9.22 5.892 9.39 6.168 1.21-7.011 5.37-15.68 8.552-18.453-.364-.188-2.45-1.208-2.761-1.412z"/><path fill="#03d47c" d="M57.168 47.108c10.302 0 18.653 8.353 18.653 18.655S67.47 84.416 57.168 84.416s-18.654-8.351-18.654-18.653c0-10.303 8.352-18.655 18.654-18.655m0 3.63c-8.298 0-15.024 6.727-15.024 15.025s6.726 15.023 15.024 15.023 15.024-6.726 15.024-15.023-6.726-15.025-15.024-15.025"/><path stroke="#002140" stroke-linecap="round" stroke-linejoin="round" d="M57.168 84.416c10.302 0 18.654-8.351 18.654-18.654S67.47 47.108 57.168 47.108c-10.303 0-18.654 8.352-18.654 18.654 0 10.303 8.351 18.654 18.654 18.654"/><path stroke="#002140" stroke-linecap="round" stroke-linejoin="round" d="M57.168 80.787c8.297 0 15.024-6.727 15.024-15.025s-6.727-15.024-15.024-15.024c-8.298 0-15.024 6.727-15.024 15.024 0 8.298 6.726 15.025 15.024 15.025"/></g><defs><clipPath id="a"><path fill="#fff" d="M.5.5h118v191H.5z"/></clipPath></defs></svg>
